build/img/9-resources/atom.svg

<svg width="40" height="40" viewBox="0 0 40 40" fill="none" xmlns="http://www.w3.org/2000/svg">
<path d="M36.5959 9.09922C34.9591 6.91711 31.306 6.31391 26.5266 7.41844C26.4241 7.17273 26.3183 6.93141 26.2091 6.69633C26.5962 6.27823 26.8288 5.74039 26.8683 5.17199C26.9078 4.60359 26.7518 4.03877 26.4263 3.57115C26.1007 3.10353 25.6252 2.76121 25.0784 2.60093C24.5317 2.44066 23.9465 2.47206 23.4201 2.68992C22.3483 1.73516 21.1997 1.25 19.9998 1.25C18.6218 1.25 17.3135 1.8857 16.1114 3.13945C15.1044 4.18961 14.2186 5.62813 13.4729 7.41836C8.6935 6.31398 5.04046 6.91719 3.40382 9.09914C1.54218 11.5807 2.60718 15.6322 6.24499 20C6.04655 20.2383 5.85444 20.4771 5.66866 20.7164C5.14101 20.5694 4.57965 20.5998 4.07101 20.8031C3.56236 21.0064 3.13463 21.3712 2.85363 21.8414C2.57264 22.3116 2.45397 22.8611 2.51589 23.4053C2.57781 23.9496 2.81688 24.4584 3.19632 24.8534C2.19944 27.3023 2.26835 29.3862 3.40374 30.9003C4.50483 32.3682 6.51764 33.1219 9.17249 33.1218C10.4642 33.1218 11.9085 32.9427 13.4729 32.5811C14.2184 34.3713 15.1044 35.8099 16.1114 36.8601C17.3135 38.1143 18.6218 38.75 19.9998 38.75C21.3779 38.75 22.6862 38.1143 23.8883 36.8605C24.8951 35.8105 25.781 34.3722 26.5265 32.5822C26.8609 32.6594 27.1911 32.7285 27.5171 32.7894C27.5861 33.3778 27.8618 33.9225 28.295 34.3266C28.7283 34.7306 29.2909 34.9677 29.8827 34.9955C30.4745 35.0233 31.0569 34.8401 31.5261 34.4785C31.9954 34.1169 32.321 33.6003 32.4448 33.021C34.312 32.7674 35.7417 32.0406 36.5958 30.9009C38.4574 28.4194 37.3927 24.3679 33.7548 20C37.3926 15.632 38.4574 11.5806 36.5959 9.09922ZM35.5959 9.84922C37.044 11.7796 36.0159 15.2664 32.9216 19.0441C31.5431 17.543 30.0406 16.1607 28.4301 14.9117C28.1365 12.6373 27.639 10.4751 26.9787 8.59789C31.1122 7.67602 34.3065 8.13016 35.5959 9.8493V9.84922ZM25.76 31.098C24.2901 30.6879 22.8511 30.174 21.4539 29.5602C22.8058 28.8623 24.1209 28.0953 25.3939 27.2621C25.9427 26.9032 26.4814 26.5337 27.0101 26.1535C26.7407 27.8355 26.3224 29.4902 25.7603 31.0981L25.76 31.098ZM14.239 31.098C13.6769 29.4901 13.2586 27.8354 12.989 26.1534C13.5165 26.5323 14.0553 26.9019 14.6054 27.262C15.8784 28.0952 17.1934 28.8623 18.5454 29.5602C17.1482 30.174 15.7093 30.6879 14.2394 31.0981L14.239 31.098ZM14.239 8.9018C15.709 9.31195 17.148 9.82587 18.5451 10.4397C17.1932 11.1376 15.8782 11.9046 14.6051 12.7377C14.0563 13.0966 13.5175 13.4662 12.9889 13.8463C13.2585 12.1644 13.677 10.5098 14.2394 8.90188L14.239 8.9018ZM15.2892 26.2159C14.413 25.6429 13.5595 25.0394 12.7476 24.4199C12.4168 21.4825 12.4168 18.5173 12.7476 15.5799C13.5595 14.9605 14.413 14.3569 15.2892 13.7839C16.8011 12.7937 18.3745 11.9008 19.9998 11.1106C21.6251 11.9008 23.1984 12.7938 24.7101 13.7841C25.5864 14.357 26.4398 14.9605 27.2517 15.58C27.4176 17.0475 27.5005 18.5232 27.4998 20C27.5005 21.4768 27.4177 22.9525 27.2517 24.42C26.4398 25.0395 25.5863 25.643 24.7101 26.216C23.1984 27.2062 21.6251 28.0991 19.9998 28.8894C18.3746 28.0992 16.8013 27.2062 15.2895 26.2159L15.2892 26.2159ZM11.3857 23.3339C10.1454 22.3072 8.98027 21.1931 7.89913 20C8.98048 18.8068 10.1458 17.6925 11.3861 16.6656C11.2962 17.7627 11.2498 18.8787 11.2498 20C11.2498 21.1213 11.2962 22.2369 11.386 23.334L11.3857 23.3339ZM25.7603 8.90188C26.3225 10.5098 26.7408 12.1645 27.0103 13.8465C26.4828 13.4676 25.944 13.098 25.394 12.7379C24.121 11.9047 22.8059 11.1376 21.454 10.4398C22.8512 9.82595 24.2903 9.31203 25.7603 8.90188ZM28.6137 16.666C29.854 17.6927 31.0193 18.8069 32.1005 20C31.0192 21.1932 29.8539 22.3075 28.6136 23.3344C28.7034 22.2373 28.7498 21.1213 28.7498 20C28.7498 18.8787 28.7034 17.7631 28.6137 16.666ZM25.6248 5C25.6248 5.24723 25.5515 5.4889 25.4142 5.69446C25.2768 5.90002 25.0816 6.06024 24.8532 6.15485C24.6248 6.24946 24.3734 6.27421 24.131 6.22598C23.8885 6.17775 23.6658 6.0587 23.4909 5.88388C23.3161 5.70907 23.1971 5.48634 23.1488 5.24386C23.1006 5.00139 23.1254 4.75005 23.22 4.52165C23.3146 4.29324 23.4748 4.09801 23.6804 3.96066C23.8859 3.82331 24.1276 3.75 24.3748 3.75C24.7062 3.75039 25.0239 3.88222 25.2583 4.11655C25.4926 4.35089 25.6244 4.6686 25.6248 5ZM19.9998 2.5C20.8176 2.5 21.6241 2.82484 22.4039 3.46477C22.0749 3.8865 21.8899 4.40271 21.8761 4.93744C21.8624 5.47216 22.0206 5.99718 22.3276 6.43526C22.6345 6.87333 23.074 7.20133 23.5812 7.37101C24.0885 7.54068 24.6369 7.54306 25.1456 7.37781C25.1984 7.49443 25.2505 7.6124 25.3019 7.73172C23.4831 8.25062 21.7099 8.91734 19.9998 9.72523C18.2895 8.91717 16.516 8.25031 14.6969 7.73133C16.1219 4.39656 18.0337 2.5 19.9998 2.5ZM4.40374 9.84922C5.69319 8.13047 8.88733 7.67594 13.0209 8.59797C12.3608 10.4748 11.8633 12.6366 11.5698 14.911C9.95933 16.1603 8.4568 17.5428 7.07803 19.0438C3.98374 15.2666 2.95553 11.7797 4.40374 9.84922ZM4.99983 21.875C5.24706 21.875 5.48873 21.9483 5.69429 22.0857C5.89986 22.223 6.06007 22.4182 6.15468 22.6466C6.24929 22.8751 6.27404 23.1264 6.22581 23.3689C6.17758 23.6113 6.05853 23.8341 5.88371 24.0089C5.7089 24.1837 5.48617 24.3027 5.24369 24.351C5.00122 24.3992 4.74988 24.3745 4.52148 24.2799C4.29307 24.1852 4.09785 24.025 3.96049 23.8195C3.82314 23.6139 3.74983 23.3722 3.74983 23.125C3.75022 22.7936 3.88205 22.4759 4.11638 22.2416C4.35072 22.0072 4.66843 21.8754 4.99983 21.875ZM4.40382 30.1509C3.39155 28.8007 3.71632 26.979 4.27741 25.518C4.81136 25.6795 5.384 25.6577 5.90411 25.4561C6.42423 25.2544 6.86191 24.8845 7.14745 24.4053C7.43299 23.9261 7.54997 23.3651 7.47975 22.8117C7.40954 22.2583 7.15616 21.7443 6.75999 21.3516C6.86363 21.2195 6.9696 21.0876 7.07788 20.9556C8.45647 22.4569 9.95901 23.8393 11.5696 25.0884C11.8632 27.3629 12.3606 29.5251 13.0209 31.4023C8.88757 32.3241 5.69327 31.8698 4.40382 30.1509ZM19.9998 37.5C18.0337 37.5 16.1219 35.6034 14.6969 32.2686C16.516 31.7497 18.2895 31.0828 19.9998 30.2748C21.7102 31.0828 23.4837 31.7497 25.3027 32.2687C23.8778 35.6034 21.9659 37.5 19.9998 37.5ZM29.9998 33.75C29.7526 33.75 29.5109 33.6767 29.3054 33.5393C29.0998 33.402 28.9396 33.2068 28.845 32.9784C28.7504 32.7499 28.7256 32.4986 28.7738 32.2561C28.8221 32.0137 28.9411 31.7909 29.1159 31.6161C29.2908 31.4413 29.5135 31.3223 29.756 31.274C29.9984 31.2258 30.2498 31.2505 30.4782 31.3451C30.7066 31.4398 30.9018 31.6 31.0392 31.8055C31.1765 32.0111 31.2498 32.2528 31.2498 32.5C31.2494 32.8314 31.1176 33.1491 30.8833 33.3834C30.6489 33.6178 30.3312 33.7496 29.9998 33.75ZM35.5957 30.151C34.9629 30.9955 33.8608 31.5484 32.39 31.7671C32.2388 31.2746 31.9392 30.8409 31.5321 30.5252C31.1251 30.2094 30.6304 30.0272 30.1158 30.0033C29.6012 29.9795 29.0918 30.1152 28.6573 30.3919C28.2227 30.6686 27.8843 31.0728 27.6882 31.5491C27.4546 31.5048 27.2181 31.4557 26.9788 31.4019C27.639 29.5251 28.1363 27.3634 28.4299 25.089C30.0404 23.8397 31.5429 22.4573 32.9216 20.9562C36.0159 24.7334 37.044 28.2203 35.5957 30.151Z" fill="#333333"/>
<path d="M20 15C19.0111 15 18.0444 15.2932 17.2222 15.8427C16.3999 16.3921 15.759 17.173 15.3806 18.0866C15.0022 19.0002 14.9031 20.0055 15.0961 20.9755C15.289 21.9454 15.7652 22.8363 16.4645 23.5355C17.1637 24.2348 18.0546 24.711 19.0246 24.9039C19.9945 25.0969 20.9998 24.9978 21.9134 24.6194C22.827 24.241 23.6079 23.6001 24.1574 22.7779C24.7068 21.9556 25 20.9889 25 20C24.9985 18.6744 24.4713 17.4035 23.5339 16.4661C22.5965 15.5288 21.3256 15.0015 20 15ZM20 23.75C19.2583 23.75 18.5333 23.5301 17.9166 23.118C17.2999 22.706 16.8193 22.1203 16.5355 21.4351C16.2516 20.7498 16.1774 19.9958 16.3221 19.2684C16.4668 18.541 16.8239 17.8728 17.3484 17.3483C17.8728 16.8239 18.541 16.4667 19.2684 16.3221C19.9958 16.1774 20.7498 16.2516 21.4351 16.5355C22.1203 16.8193 22.706 17.2999 23.118 17.9166C23.5301 18.5333 23.75 19.2583 23.75 20C23.7489 20.9942 23.3534 21.9474 22.6504 22.6504C21.9474 23.3534 20.9942 23.7489 20 23.75Z" fill="#333333"/>
</svg>

<svg width="40" height="40" fill="none" xmlns="http://www.w3.org/2000/svg"><path d="M36.596 9.1c-1.637-2.183-5.29-2.786-10.07-1.682a19.922 19.922 0 00-.317-.722A2.499 2.499 0 0023.42 2.69C22.348 1.735 21.2 1.25 20 1.25c-1.378 0-2.686.636-3.889 1.89-1.007 1.05-1.892 2.488-2.638 4.278-4.78-1.104-8.433-.5-10.07 1.681-1.86 2.482-.796 6.533 2.842 10.901-.198.238-.39.477-.576.716a2.498 2.498 0 00-2.473 4.137c-.997 2.45-.928 4.533.208 6.047 1.1 1.468 3.114 2.222 5.768 2.222 1.292 0 2.736-.18 4.3-.54.746 1.79 1.632 3.228 2.64 4.278 1.202 1.254 2.51 1.89 3.888 1.89 1.378 0 2.686-.636 3.888-1.89 1.007-1.05 1.893-2.488 2.638-4.278.335.077.665.146.991.207a2.5 2.5 0 004.928.232c1.867-.254 3.297-.98 4.15-2.12 1.862-2.482.798-6.533-2.84-10.901 3.638-4.368 4.702-8.42 2.84-10.9zm-1 .75c1.448 1.93.42 5.416-2.674 9.194a36.306 36.306 0 00-4.492-4.132c-.293-2.275-.791-4.437-1.451-6.314 4.133-.922 7.328-.468 8.617 1.251zM25.76 31.097a32.263 32.263 0 01-4.306-1.538 44.307 44.307 0 005.556-3.406 28.773 28.773 0 01-1.25 4.944zm-11.521 0a28.792 28.792 0 01-1.25-4.945 44.294 44.294 0 005.556 3.407 32.276 32.276 0 01-4.306 1.538zm0-22.196c1.47.41 2.909.924 4.306 1.538a44.345 44.345 0 00-5.556 3.406c.27-1.682.688-3.336 1.25-4.944zm1.05 17.314a43.011 43.011 0 01-2.541-1.796 39.496 39.496 0 010-8.84A43.058 43.058 0 0120 11.11a42.539 42.539 0 014.71 2.674 42.93 42.93 0 012.542 1.796c.166 1.467.248 2.943.248 4.42 0 1.477-.082 2.953-.248 4.42A43.011 43.011 0 0120 28.89a42.557 42.557 0 01-4.71-2.674zm-3.903-2.882A33.73 33.73 0 017.899 20a33.772 33.772 0 013.487-3.334 40.894 40.894 0 000 6.668zM25.76 8.902c.563 1.608.98 3.263 1.25 4.945a44.283 44.283 0 00-5.556-3.407 32.26 32.26 0 014.306-1.538zm2.854 7.764A33.74 33.74 0 0132.1 20a33.766 33.766 0 01-3.486 3.334 40.94 40.94 0 000-6.668zM25.624 5a1.25 1.25 0 11-2.5 0 1.25 1.25 0 012.5 0zM20 2.5c.818 0 1.624.325 2.404.965a2.5 2.5 0 002.742 3.913l.156.354A34.698 34.698 0 0020 9.725a34.696 34.696 0 00-5.303-1.994C16.122 4.397 18.034 2.5 20 2.5zM4.404 9.85c1.29-1.72 4.483-2.174 8.617-1.252-.66 1.877-1.158 4.039-1.451 6.313a36.365 36.365 0 00-4.492 4.133c-3.094-3.777-4.122-7.264-2.674-9.195zM5 21.874a1.25 1.25 0 110 2.5 1.25 1.25 0 010-2.5zm-.596 8.276c-1.012-1.35-.688-3.172-.127-4.633a2.5 2.5 0 002.483-4.166c.104-.133.21-.264.318-.396a36.304 36.304 0 004.492 4.132c.293 2.275.79 4.437 1.45 6.314-4.132.922-7.327.468-8.616-1.251zM20 37.5c-1.966 0-3.878-1.897-5.303-5.231A34.693 34.693 0 0020 30.275a34.712 34.712 0 005.303 1.994C23.878 35.603 21.966 37.5 20 37.5zm10-3.75a1.25 1.25 0 110-2.499 1.25 1.25 0 010 2.499zm5.596-3.599c-.633.845-1.735 1.397-3.206 1.616a2.5 2.5 0 00-4.702-.218c-.233-.044-.47-.093-.71-.147.661-1.877 1.158-4.039 1.452-6.313a36.349 36.349 0 004.492-4.133c3.094 3.777 4.122 7.264 2.674 9.195z" fill="#333"/><path d="M20 15a4.999 4.999 0 100 9.998A4.999 4.999 0 0020 15zm0 8.75a3.75 3.75 0 110-7.5 3.75 3.75 0 010 7.5z" fill="#333"/></svg>
